X:76
T: Cha hua xie
N: C1574
O: China,Shandong, Dezhou
S: III, 382]
R: Haozi, Yunhe haozi]
M: 2/4
L: 1/16
K: Eb
g2fgf4- | f8 |
f2B2c2c2 | B2e2c4 | f2f2bgb2 | g3ff4 | e4e2c2 | c8 |
c3ec2e2 | f8 | c2f2z2g2 | f4z2
f2 | e4g2b2 | f6c2 | e8 | d2f2d2c2 | B4c4 | B8 | B4z4 |
f2B2c2z2
f2B2c2z2
f2B2c2c2
f2BBc2c2
f2B2c2c2
f2B2c2c2
c2eef2f2
g2eef2f2
c2eef2f2
g2e2f2f2
z4f2f2 | e4g2b2 | f4f2c2 | e8 | d2f2d2c2 | B4c4 | B8 | B4z4

@@@ Tune index: 6631
